X: 22733
T: Lamplighter, The
R: hornpipe
M: 4/4
K: Gmajor
|:Bc|dBdB dgfe|dBdB dgfe|dBdB edcB|c2 A2 A2 Bc|
dBdB dgfe|dBdB dgfe|decd BGAF|G2 G2 G2:|
|:Bc|dcBA B2 ed|cBAB c2 dc|BGBG cBAG|FGAB A2 Bc|
dcBA B2 ed|cBAB c2 dc|BgGB AcFA|G2 G2 G2:|

